packages/foundations/assets/icons/functional/images/food/knife_and_fork_16.svg

<svg width="16" height="16" viewBox="0 0 16 16" fill="none" xmlns="http://www.w3.org/2000/svg">
<g clip-path="url(#clip0_2208_3701)">
<path fill-rule="evenodd" clip-rule="evenodd" d="M3.19998 5.60001C3.19998 6.50001 3.92494 7.20001 4.79998 7.20001C5.62494 7.20001 6.39998 6.50001 6.39998 5.60001V2.40001C6.39998 1.95001 6.77502 1.60001 7.19998 1.60001C7.64998 1.60001 7.99998 1.97505 7.99998 2.40001V5.62497C7.99998 7.12497 6.97502 8.35001 5.59998 8.70001V13.6C5.59998 14.05 5.22494 14.4 4.79998 14.4C4.34998 14.4 3.99998 14.05 3.99998 13.6V8.70001C2.62494 8.35001 1.59998 7.12497 1.59998 5.62497V2.40001C1.59998 1.95001 1.94998 1.60001 2.39998 1.60001C2.84998 1.60001 3.19998 1.95001 3.19998 2.40001V5.60001ZM4.79998 1.60001C5.22494 1.60001 5.59998 1.95001 5.59998 2.40001V5.20001C5.59998 5.64183 5.2418 6.00001 4.79998 6.00001C4.35815 6.00001 3.99998 5.64183 3.99998 5.20001V2.40001C3.99998 1.95001 4.34998 1.60001 4.79998 1.60001ZM13.6 1.60001C14.05 1.60001 14.4 1.95001 14.4 2.40001V13.6C14.4 14.05 14.05 14.4 13.6 14.4C13.15 14.4 12.8 14.05 12.8 13.6V11.2H9.59998V5.65001C9.59998 3.50001 11.35 1.60001 13.5 1.60001H13.6ZM12.8 3.20001C11.85 3.50001 11.2 4.60001 11.2 5.60001V9.60001H12.8V3.20001Z" fill="#1A1C1F"/>
</g>
<defs>
<clipPath id="clip0_2208_3701">
<rect width="16" height="16" fill="white"/>
</clipPath>
</defs>
</svg>

<svg xmlns="http://www.w3.org/2000/svg" width="16" height="16" fill="none"><g clip-path="url(#a)"><path fill="#1A1C1F" fill-rule="evenodd" d="M3.2 5.6c0 .9.725 1.6 1.6 1.6.825 0 1.6-.7 1.6-1.6V2.4c0-.45.375-.8.8-.8.45 0 .8.375.8.8v3.225C8 7.125 6.975 8.35 5.6 8.7v4.9c0 .45-.375.8-.8.8a.79.79 0 0 1-.8-.8V8.7a3.17 3.17 0 0 1-2.4-3.075V2.4c0-.45.35-.8.8-.8s.8.35.8.8zm1.6-4c.425 0 .8.35.8.8v2.8a.8.8 0 0 1-1.6 0V2.4c0-.45.35-.8.8-.8m8.8 0c.45 0 .8.35.8.8v11.2c0 .45-.35.8-.8.8a.79.79 0 0 1-.8-.8v-2.4H9.6V5.65c0-2.15 1.75-4.05 3.9-4.05zm-.8 1.6c-.95.3-1.6 1.4-1.6 2.4v4h1.6z" clip-rule="evenodd"/></g><defs><clipPath id="a"><path fill="#fff" d="M0 0h16v16H0z"/></clipPath></defs></svg>
